usr/share/icons/biglinux-icons-material/scalable/apps/com.google.Chrome.svg

<?xml version="1.0" encoding="UTF-8" standalone="no"?>
<!-- Created with Inkscape (http://www.inkscape.org/) -->

<svg
   width="24"
   height="24"
   viewBox="0 0 6.3499999 6.35"
   version="1.1"
   id="svg2180"
   inkscape:version="1.2.2 (b0a8486541, 2022-12-01)"
   sodipodi:docname="google-chrome.svg"
   xmlns:inkscape="http://www.inkscape.org/namespaces/inkscape"
   xmlns:sodipodi="http://sodipodi.sourceforge.net/DTD/sodipodi-0.dtd"
   xmlns="http://www.w3.org/2000/svg"
   xmlns:svg="http://www.w3.org/2000/svg">
  <sodipodi:namedview
     id="namedview2182"
     pagecolor="#ffffff"
     bordercolor="#000000"
     borderopacity="0.25"
     inkscape:showpageshadow="2"
     inkscape:pageopacity="0.0"
     inkscape:pagecheckerboard="0"
     inkscape:deskcolor="#d1d1d1"
     inkscape:document-units="mm"
     showgrid="false"
     inkscape:zoom="17.093731"
     inkscape:cx="19.597828"
     inkscape:cy="18.457059"
     inkscape:window-width="2560"
     inkscape:window-height="1000"
     inkscape:window-x="1680"
     inkscape:window-y="0"
     inkscape:window-maximized="1"
     inkscape:current-layer="layer1" />
  <defs
     id="defs2177">
    <radialGradient
       fx="0"
       fy="0"
       cx="0"
       cy="0"
       r="1"
       gradientUnits="userSpaceOnUse"
       gradientTransform="matrix(0,16.5,-16.5,0,8.999651,0.749985)"
       spreadMethod="pad"
       id="radialGradient868-3">
      <stop
         style="stop-opacity:1;stop-color:#fafafa"
         offset="0"
         id="stop864-6" />
      <stop
         style="stop-opacity:1;stop-color:#c0c0c0"
         offset="1"
         id="stop866-7" />
    </radialGradient>
  </defs>
  <g
     inkscape:label="Camada 1"
     inkscape:groupmode="layer"
     id="layer1">
    <g
       id="g854"
       transform="matrix(0.35277777,0,0,0.35277777,-1.197e-4,-9.3e-6)">
      <g
         id="g856">
        <g
           id="g862">
          <path
             d="m 7.195,0.836 c 0.09,0 0.176,-0.012 0.258,-0.035 1.078,-0.071 2.156,-0.067 3.231,0.008 0.976,0.078 1.921,0.289 2.836,0.636 1.519,0.625 2.558,1.711 3.121,3.254 0.316,0.93 0.507,1.887 0.566,2.867 0.078,1.235 0.051,2.465 -0.086,3.696 -0.105,0.863 -0.328,1.691 -0.672,2.488 -0.637,1.383 -1.672,2.336 -3.101,2.859 C 12.191,17 11,17.207 9.773,17.227 8.398,17.301 7.035,17.195 5.684,16.918 3.203,16.367 1.668,14.852 1.09,12.375 0.844,11.262 0.73,10.133 0.754,8.992 0.727,7.781 0.855,6.582 1.141,5.402 1.75,3.09 3.219,1.656 5.547,1.102 6.09,0.969 6.641,0.879 7.195,0.836 Z"
             style="fill:url(#radialGradient868-3);fill-rule:evenodd;stroke:none"
             id="path870" />
        </g>
      </g>
    </g>
    <g
       id="g3602"
       transform="matrix(1.0449481,0,0,1.0449481,-0.14258509,-0.14271056)">
      <path
         d="M 1.656172,2.0365768 C 1.4081692,2.3660712 1.2758775,2.7685907 1.2758775,3.1806351 1.2730553,4.2305017 2.126072,5.0792851 3.1748803,5.0739934 L 3.8391608,3.7122712 2.6058497,3.4603879 Z"
         style="fill:#17a05e;fill-opacity:1;fill-rule:evenodd;stroke:none;stroke-width:0.352778"
         id="path872" />
      <path
         d="M 3.2701303,2.3205629 3.8391608,3.7069795 3.1748803,5.0739934 c 1.0502194,0.00282 1.9018249,-0.8487833 1.8990027,-1.8990028 0,-0.2963333 -0.068792,-0.5898444 -0.2039056,-0.8544277 z"
         style="fill:#ffce42;fill-opacity:1;fill-rule:evenodd;stroke:none;stroke-width:0.352778"
         id="path874" />
      <path
         d="M 3.1748803,1.2759879 C 2.5769219,1.2745768 2.0131831,1.5571518 1.656172,2.0365768 L 2.6044386,3.4603879 3.8391608,3.7069795 3.2701303,2.3205629 H 4.8699774 C 4.5489497,1.6785073 3.8913719,1.2745768 3.1748803,1.2759879 Z"
         style="fill:#de5347;fill-opacity:1;fill-rule:evenodd;stroke:none;stroke-width:0.352778"
         id="path876" />
      <path
         d="m 3.1748803,2.3247962 c 0.4699,-0.00141 0.8516055,0.3802945 0.8501944,0.8501944 0.00141,0.4699 -0.3802944,0.8516056 -0.8501944,0.8501945 -0.4699,0.00141 -0.8516056,-0.3802945 -0.8501945,-0.8501945 -0.00141,-0.4698999 0.3802945,-0.8516055 0.8501945,-0.8501944 z"
         style="fill:#ffffff;fill-opacity:1;fill-rule:nonzero;stroke:none;stroke-width:0.352778"
         id="path998" />
      <path
         d="m 3.1748803,2.5368157 c 0.3527777,0 0.6392333,0.2853972 0.6381749,0.6381749 0,0.3527778 -0.2853972,0.638175 -0.6381749,0.638175 -0.3527778,0 -0.638175,-0.2853972 -0.638175,-0.638175 0,-0.3527777 0.2853972,-0.6381749 0.638175,-0.6381749 z"
         style="fill:#4a8af4;fill-opacity:1;fill-rule:nonzero;stroke:none;stroke-width:0.352778"
         id="path1000" />
    </g>
  </g>
</svg>

<svg xmlns="http://www.w3.org/2000/svg" width="24" height="24" viewBox="0 0 6.35 6.35"><defs><radialGradient id="a" cx="0" cy="0" r="1" fx="0" fy="0" gradientTransform="matrix(0 16.5 -16.5 0 9 .75)" gradientUnits="userSpaceOnUse" spreadMethod="pad"><stop offset="0" style="stop-opacity:1;stop-color:#fafafa"/><stop offset="1" style="stop-opacity:1;stop-color:silver"/></radialGradient></defs><path d="M7.195.836c.09 0 .176-.012.258-.035a23.86 23.86 0 0 1 3.231.008 10.26 10.26 0 0 1 2.836.636c1.519.625 2.558 1.711 3.121 3.254.316.93.507 1.887.566 2.867a21.227 21.227 0 0 1-.086 3.696 8.976 8.976 0 0 1-.672 2.488c-.637 1.383-1.672 2.336-3.101 2.859a11.693 11.693 0 0 1-3.575.618 15.998 15.998 0 0 1-4.089-.309c-2.481-.551-4.016-2.066-4.594-4.543a14.244 14.244 0 0 1-.336-3.383c-.027-1.211.101-2.41.387-3.59.609-2.312 2.078-3.746 4.406-4.3A10.27 10.27 0 0 1 7.195.836Z" style="fill:url(#a);fill-rule:evenodd;stroke:none" transform="matrix(.35278 0 0 .35278 0 0)"/><path d="M1.656 2.037c-.248.33-.38.732-.38 1.144a1.888 1.888 0 0 0 1.899 1.893l.664-1.362-1.233-.252Z" style="fill:#17a05e;fill-opacity:1;fill-rule:evenodd;stroke:none;stroke-width:.352778" transform="matrix(1.04495 0 0 1.04495 -.143 -.143)"/><path d="m3.27 2.32.57 1.387-.665 1.367A1.894 1.894 0 0 0 4.87 2.321z" style="fill:#ffce42;fill-opacity:1;fill-rule:evenodd;stroke:none;stroke-width:.352778" transform="matrix(1.04495 0 0 1.04495 -.143 -.143)"/><path d="M3.175 1.276a1.889 1.889 0 0 0-1.519.76l.948 1.424 1.235.247-.569-1.386h1.6a1.891 1.891 0 0 0-1.695-1.045Z" style="fill:#de5347;fill-opacity:1;fill-rule:evenodd;stroke:none;stroke-width:.352778" transform="matrix(1.04495 0 0 1.04495 -.143 -.143)"/><path d="M3.175 2.325c.47-.002.851.38.85.85a.848.848 0 0 1-.85.85.848.848 0 0 1-.85-.85.848.848 0 0 1 .85-.85z" style="fill:#fff;fill-opacity:1;fill-rule:nonzero;stroke:none;stroke-width:.352778" transform="matrix(1.04495 0 0 1.04495 -.143 -.143)"/><path d="M3.175 2.537a.637.637 0 1 1 0 1.276.638.638 0 1 1 0-1.276z" style="fill:#4a8af4;fill-opacity:1;fill-rule:nonzero;stroke:none;stroke-width:.352778" transform="matrix(1.04495 0 0 1.04495 -.143 -.143)"/></svg>
